X: 16484
T: Haggis, The
R: reel
M: 4/4
K: Dmajor
(3FGA AB AF~F2|(3FGA AB d3A|(3FGA AB AF~F2|1 ECEF ~G3A:|2 ECEF ~G3e||
fd (3Bcd AdBd|fdAd ~g3e|fd (3Bcd AdBd|ecef ~g3e|
fd (3Bcd AdBd|fdAd ~g3e|fdec dBAF|ECEF ~G3A||

